germany/municipalities/07140102.svg

<?xml version="1.0" encoding="UTF-8" standalone="no"?>
<!-- Created with Inkscape (http://www.inkscape.org/) -->

<svg
   xmlns:dc="http://purl.org/dc/elements/1.1/"
   xmlns:cc="http://creativecommons.org/ns#"
   xmlns:rdf="http://www.w3.org/1999/02/22-rdf-syntax-ns#"
   xmlns:svg="http://www.w3.org/2000/svg"
   xmlns="http://www.w3.org/2000/svg"
   xmlns:sodipodi="http://sodipodi.sourceforge.net/DTD/sodipodi-0.dtd"
   xmlns:inkscape="http://www.inkscape.org/namespaces/inkscape"
   width="140.57285mm"
   height="159.61653mm"
   viewBox="0 0 140.57284 159.61653"
   version="1.1"
   id="svg865"
   inkscape:version="0.92.5 (2060ec1f9f, 2020-04-08)"
   sodipodi:docname="DEU Ney COA.svg">
  <defs
     id="defs859">
    <inkscape:path-effect
       effect="spiro"
       id="path-effect2061"
       is_visible="true" />
    <inkscape:path-effect
       effect="spiro"
       id="path-effect1949"
       is_visible="true" />
    <inkscape:path-effect
       effect="spiro"
       id="path-effect3644"
       is_visible="true" />
    <inkscape:path-effect
       effect="spiro"
       id="path-effect3636"
       is_visible="true" />
    <inkscape:path-effect
       effect="spiro"
       id="path-effect3544"
       is_visible="true" />
    <inkscape:path-effect
       effect="spiro"
       id="path-effect3466"
       is_visible="true" />
    <inkscape:path-effect
       effect="spiro"
       id="path-effect3544-2"
       is_visible="true" />
    <inkscape:path-effect
       effect="spiro"
       id="path-effect3644-8"
       is_visible="true" />
    <inkscape:path-effect
       effect="spiro"
       id="path-effect3644-3"
       is_visible="true" />
    <inkscape:path-effect
       effect="spiro"
       id="path-effect3636-0"
       is_visible="true" />
    <inkscape:path-effect
       effect="spiro"
       id="path-effect1727-0-1"
       is_visible="true" />
    <inkscape:path-effect
       effect="spiro"
       id="path-effect1731-8-3"
       is_visible="true" />
    <inkscape:path-effect
       effect="spiro"
       id="path-effect1727-3"
       is_visible="true" />
    <inkscape:path-effect
       effect="spiro"
       id="path-effect1731-7"
       is_visible="true" />
    <inkscape:path-effect
       effect="spiro"
       id="path-effect841-8"
       is_visible="true" />
    <inkscape:path-effect
       effect="skeletal"
       id="path-effect6414"
       is_visible="true"
       lpeversion="1"
       pattern="m 26507.414,27761.564 c 0,-13.157 10.678,-23.835 23.835,-23.835 13.157,0 23.835,10.678 23.835,23.835 0,13.157 -10.678,23.835 -23.835,23.835 -13.157,0 -23.835,-10.678 -23.835,-23.835 z"
       copytype="single_stretched"
       prop_scale="0.08"
       scale_y_rel="false"
       spacing="0"
       normal_offset="0"
       tang_offset="0"
       prop_units="false"
       vertical_pattern="false"
       hide_knot="false"
       fuse_tolerance="0" />
    <inkscape:path-effect
       effect="spiro"
       id="path-effect1949-5"
       is_visible="true" />
    <inkscape:path-effect
       effect="spiro"
       id="path-effect2061-0"
       is_visible="true" />
  </defs>
  <sodipodi:namedview
     id="base"
     pagecolor="#ffffff"
     bordercolor="#666666"
     borderopacity="1.0"
     inkscape:pageopacity="0.0"
     inkscape:pageshadow="2"
     inkscape:zoom="1.3144949"
     inkscape:cx="265.64948"
     inkscape:cy="301.63752"
     inkscape:document-units="mm"
     inkscape:current-layer="layer1"
     showgrid="false"
     inkscape:window-width="1920"
     inkscape:window-height="1046"
     inkscape:window-x="-11"
     inkscape:window-y="-11"
     inkscape:window-maximized="1"
     fit-margin-top="0"
     fit-margin-left="0"
     fit-margin-right="0"
     fit-margin-bottom="0"
     inkscape:snap-global="false"
     inkscape:snap-midpoints="true"
     inkscape:snap-smooth-nodes="true" />
  <metadata
     id="metadata862">
    <rdf:RDF>
      <cc:Work
         rdf:about="">
        <dc:format>image/svg+xml</dc:format>
        <dc:type
           rdf:resource="http://purl.org/dc/dcmitype/StillImage" />
        <dc:title></dc:title>
      </cc:Work>
    </rdf:RDF>
  </metadata>
  <g
     inkscape:label="Ebene 1"
     inkscape:groupmode="layer"
     id="layer1"
     transform="translate(-144.00511,170.71617)">
    <path
       style="opacity:1;fill:#ffffff;fill-opacity:1;fill-rule:evenodd;stroke:none;stroke-width:2.91041636;stroke-linecap:round;stroke-linejoin:round;stroke-miterlimit:4;stroke-dasharray:none;stroke-opacity:1;paint-order:fill markers stroke"
       d="m 145.46032,-169.26096 v 85.912472 c 0,41.282259 30.69832,70.793651 68.83095,70.793651 38.13265,0 68.83148,-29.511392 68.83148,-70.793651 v -85.912472 z"
       id="rect953-8-6"
       inkscape:connector-curvature="0"
       sodipodi:nodetypes="cssscc" />
    <path
       style="opacity:1;fill:#009bdf;fill-opacity:1;fill-rule:evenodd;stroke:none;stroke-width:10.99999905;stroke-linecap:round;stroke-linejoin:round;stroke-miterlimit:4;stroke-dasharray:none;stroke-opacity:1;paint-order:fill markers stroke"
       d="M 5.5 271.43359 L 5.5 330.20898 C 5.5 486.2364 121.52511 597.77539 265.64844 597.77539 C 409.77184 597.77539 525.79883 486.2364 525.79883 330.20898 L 525.79883 271.43359 L 5.5 271.43359 z "
       transform="matrix(0.26458333,0,0,0.26458333,144.00511,-170.71617)"
       id="rect953-8-6-7" />
    <path
       inkscape:connector-curvature="0"
       style="fill:#ffffff;stroke:none;stroke-width:1.32291663;stroke-linecap:round;stroke-linejoin:round;stroke-miterlimit:4;stroke-dasharray:none;stroke-opacity:1"
       d="m 145.46032,-97.273635 v 13.92525 c 0,24.304201 10.64289,44.524831 27.17612,57.049228 1.78633,-1.310147 3.51698,-2.696447 5.18314,-4.156337 13.31421,-11.66588 22.20489,-27.60302 28.79152,-44.034001 2.98371,-7.44316 5.54909,-15.05371 7.68067,-22.78414 z m 68.83145,0 c 2.1316,7.73043 4.69747,15.34098 7.68118,22.78414 6.58663,16.430981 15.47732,32.368121 28.79152,44.034001 1.66599,1.45974 3.39651,2.8458 5.18263,4.155822 16.53292,-12.524452 27.17561,-32.744902 27.17561,-57.048713 v -13.92525 z"
       id="path2059-0" />
    <path
       style="opacity:1;fill:#ed1c24;fill-opacity:1;fill-rule:evenodd;stroke:#000000;stroke-width:5;stroke-linecap:round;stroke-linejoin:round;stroke-miterlimit:4;stroke-dasharray:none;stroke-dashoffset:0;stroke-opacity:1;paint-order:fill markers stroke"
       d="M 5.5 8.1699219 L 5.5 95.923828 L 525.79883 95.923828 L 525.79883 8.1699219 L 5.5 8.1699219 z M 5.5 183.67773 L 5.5 271.43359 L 525.79883 271.43359 L 525.79883 183.67773 L 5.5 183.67773 z "
       transform="matrix(0.26458333,0,0,0.26458333,144.00511,-170.71617)"
       id="rect1874" />
    <path
       style="opacity:1;fill:#000000;fill-opacity:1;fill-rule:evenodd;stroke:none;stroke-width:10.99999905;stroke-linecap:round;stroke-linejoin:round;stroke-miterlimit:4;stroke-dasharray:none;stroke-dashoffset:0;stroke-opacity:1;paint-order:fill markers stroke"
       d="M 5.5 268.75195 L 5.5 277.57812 L 525.79883 277.57812 L 525.79883 268.75195 L 5.5 268.75195 z "
       transform="matrix(0.26458333,0,0,0.26458333,144.00511,-170.71617)"
       id="rect1856" />
    <path
       style="opacity:1;fill:none;fill-opacity:1;fill-rule:evenodd;stroke:#000000;stroke-width:2.91;stroke-linecap:round;stroke-linejoin:miter;stroke-miterlimit:4;stroke-dasharray:none;stroke-opacity:1;paint-order:fill markers stroke"
       d="m 145.46032,-169.26096 v 85.912473 c 0,41.282257 30.69832,70.793648 68.83095,70.793648 38.13265,0 68.83148,-29.511391 68.83148,-70.793648 v -85.912473 z"
       id="rect953-8"
       inkscape:connector-curvature="0"
       sodipodi:nodetypes="cssscc" />
    <path
       style="fill:none;stroke:#000000;stroke-width:5;stroke-linecap:round;stroke-linejoin:round;stroke-miterlimit:4;stroke-dasharray:none;stroke-opacity:1"
       d="M 5.5 277.57812 L 5.5 330.20898 C 5.5 422.06739 45.725109 498.49181 108.21289 545.82812 C 114.96438 540.8764 121.50542 535.63684 127.80273 530.11914 C 178.1242 486.02763 211.72674 425.79277 236.62109 363.69141 C 247.89811 335.55978 257.59403 306.79549 265.65039 277.57812 L 5.5 277.57812 z M 265.65039 277.57812 C 273.70683 306.79549 283.40463 335.55978 294.68164 363.69141 C 319.57599 425.79277 353.17858 486.02763 403.5 530.11914 C 409.79665 535.63624 416.33718 540.87491 423.08789 545.82617 C 485.57451 498.48967 525.79883 422.06591 525.79883 330.20898 L 525.79883 277.57812 L 265.65039 277.57812 z "
       transform="matrix(0.26458333,0,0,0.26458333,144.00511,-170.71617)"
       id="path2059" />
    <path
       style="opacity:1;fill:#009bdf;fill-opacity:1;fill-rule:evenodd;stroke:#000000;stroke-width:1.32299995;stroke-linecap:round;stroke-linejoin:round;stroke-miterlimit:4;stroke-dasharray:none;stroke-dashoffset:0;stroke-opacity:1;paint-order:fill markers stroke"
       d="m 176.23314,-93.011353 -5.93711,10.911477 -12.42611,-0.318325 6.489,10.593667 -6.489,10.593152 12.42611,-0.318325 5.93711,10.911993 5.9371,-10.911993 12.42663,0.318325 -6.48953,-10.593152 6.48953,-10.593667 -12.42663,0.318325 z m 76.11679,0 -5.9371,10.911477 -12.42663,-0.318325 6.48953,10.593667 -6.48953,10.593152 12.42663,-0.318325 5.9371,10.911993 5.93711,-10.911993 12.42611,0.318325 -6.489,-10.593152 6.489,-10.593667 -12.42611,0.318325 z"
       id="path2145"
       inkscape:connector-curvature="0" />
    <path
       sodipodi:type="star"
       style="opacity:1;fill:#ffffff;fill-opacity:1;fill-rule:evenodd;stroke:#000000;stroke-width:1.12241888;stroke-linecap:round;stroke-linejoin:round;stroke-miterlimit:4;stroke-dasharray:none;stroke-dashoffset:0;stroke-opacity:1;paint-order:fill markers stroke"
       id="path2145-7"
       sodipodi:sides="6"
       sodipodi:cx="19.531872"
       sodipodi:cy="-113.85428"
       sodipodi:r1="17.982061"
       sodipodi:r2="10.069954"
       sodipodi:arg1="0"
       sodipodi:arg2="0.52359878"
       inkscape:flatsided="false"
       inkscape:rounded="1.73472e-17"
       inkscape:randomized="0"
       d="m 37.513933,-113.85428 -9.261225,5.03498 0.270194,10.537943 -8.99103,-5.502963 -8.991031,5.502963 0.270195,-10.537943 -9.2612256,-5.03498 9.2612256,-5.03498 -0.270195,-10.53794 8.991031,5.50297 8.99103,-5.50297 -0.270194,10.53794 z"
       inkscape:transform-center-x="-4.5491076e-06"
       transform="matrix(0,1.1782154,-1.1791934,0,80.035303,-60.428763)" />
  </g>
</svg>

<svg xmlns="http://www.w3.org/2000/svg" width="531.299" height="603.275" viewBox="0 0 140.573 159.617"><path style="opacity:1;fill:#fff;fill-opacity:1;fill-rule:evenodd;stroke:none;stroke-width:2.91041636;stroke-linecap:round;stroke-linejoin:round;stroke-miterlimit:4;stroke-dasharray:none;stroke-opacity:1;paint-order:fill markers stroke" d="M145.46-169.261v85.913c0 41.282 30.699 70.793 68.831 70.793 38.133 0 68.832-29.511 68.832-70.793v-85.913z" transform="translate(-144.005 170.716)"/><path style="opacity:1;fill:#009bdf;fill-opacity:1;fill-rule:evenodd;stroke:none;stroke-width:10.99999905;stroke-linecap:round;stroke-linejoin:round;stroke-miterlimit:4;stroke-dasharray:none;stroke-opacity:1;paint-order:fill markers stroke" d="M5.5 271.434v58.775c0 156.027 116.025 267.566 260.148 267.566 144.124 0 260.15-111.539 260.15-267.566v-58.775H5.5z" transform="scale(.26458)"/><path style="fill:#fff;stroke:none;stroke-width:1.32291663;stroke-linecap:round;stroke-linejoin:round;stroke-miterlimit:4;stroke-dasharray:none;stroke-opacity:1" d="M145.46-97.274v13.926c0 24.304 10.643 44.524 27.176 57.049a76.668 76.668 0 0 0 5.184-4.156c13.314-11.666 22.204-27.604 28.791-44.034a214.462 214.462 0 0 0 7.68-22.785zm68.832 0a214.47 214.47 0 0 0 7.68 22.785c6.588 16.43 15.478 32.368 28.792 44.034a76.67 76.67 0 0 0 5.183 4.155c16.533-12.524 27.176-32.745 27.176-57.048v-13.926z" transform="translate(-144.005 170.716)"/><path style="opacity:1;fill:#ed1c24;fill-opacity:1;fill-rule:evenodd;stroke:#000;stroke-width:5;stroke-linecap:round;stroke-linejoin:round;stroke-miterlimit:4;stroke-dasharray:none;stroke-dashoffset:0;stroke-opacity:1;paint-order:fill markers stroke" d="M5.5 8.17v87.754h520.299V8.17H5.5zm0 175.508v87.756h520.299v-87.756H5.5z" transform="scale(.26458)"/><path style="opacity:1;fill:#000;fill-opacity:1;fill-rule:evenodd;stroke:none;stroke-width:10.99999905;stroke-linecap:round;stroke-linejoin:round;stroke-miterlimit:4;stroke-dasharray:none;stroke-dashoffset:0;stroke-opacity:1;paint-order:fill markers stroke" d="M5.5 268.752v8.826h520.299v-8.826H5.5z" transform="scale(.26458)"/><path style="opacity:1;fill:none;fill-opacity:1;fill-rule:evenodd;stroke:#000;stroke-width:2.91;stroke-linecap:round;stroke-linejoin:miter;stroke-miterlimit:4;stroke-dasharray:none;stroke-opacity:1;paint-order:fill markers stroke" d="M145.46-169.261v85.913c0 41.282 30.699 70.793 68.831 70.793 38.133 0 68.832-29.511 68.832-70.793v-85.913z" transform="translate(-144.005 170.716)"/><path style="fill:none;stroke:#000;stroke-width:5;stroke-linecap:round;stroke-linejoin:round;stroke-miterlimit:4;stroke-dasharray:none;stroke-opacity:1" d="M5.5 277.578v52.631c0 91.858 40.225 168.283 102.713 215.62a289.765 289.765 0 0 0 19.59-15.71c50.321-44.091 83.924-104.326 108.818-166.428a810.563 810.563 0 0 0 29.03-86.113H5.5zm260.15 0a810.594 810.594 0 0 0 29.032 86.113c24.894 62.102 58.497 122.337 108.818 166.428a289.775 289.775 0 0 0 19.588 15.707c62.487-47.336 102.71-123.76 102.71-215.617v-52.63H265.65z" transform="scale(.26458)"/><path style="opacity:1;fill:#009bdf;fill-opacity:1;fill-rule:evenodd;stroke:#000;stroke-width:1.32299995;stroke-linecap:round;stroke-linejoin:round;stroke-miterlimit:4;stroke-dasharray:none;stroke-dashoffset:0;stroke-opacity:1;paint-order:fill markers stroke" d="M176.233-93.011 170.296-82.1l-12.426-.318 6.489 10.593-6.49 10.594 12.427-.319 5.937 10.912 5.937-10.912 12.427.319-6.49-10.594 6.49-10.593-12.427.318zm76.117 0L246.413-82.1l-12.427-.318 6.49 10.593-6.49 10.594 12.427-.319 5.937 10.912 5.937-10.912 12.426.319-6.489-10.594 6.49-10.593-12.427.318z" transform="translate(-144.005 170.716)"/><path style="opacity:1;fill:#fff;fill-opacity:1;fill-rule:evenodd;stroke:#000;stroke-width:1.12241888;stroke-linecap:round;stroke-linejoin:round;stroke-miterlimit:4;stroke-dasharray:none;stroke-dashoffset:0;stroke-opacity:1;paint-order:fill markers stroke" d="m37.514-113.854-9.261 5.035.27 10.538-8.991-5.503-8.991 5.503.27-10.538-9.261-5.035 9.261-5.035-.27-10.538 8.99 5.503 8.992-5.503-.27 10.538z" transform="matrix(0 1.17822 -1.1792 0 -63.97 110.287)"/></svg>
